z_dist/img/icons/crypto/tezos-XTZ.svg

<svg width="64" height="64" viewBox="0 0 64 64" fill="none" xmlns="http://www.w3.org/2000/svg">
<rect y="0.000488281" width="64" height="64" rx="4" fill="#2C7DF7"/>
<path d="M36.5706 53.3338C33.5259 53.3338 31.3037 52.6005 29.9038 51.1338C28.607 49.8923 27.8544 48.1879 27.8106 46.3931C27.7949 45.8478 27.9212 45.3079 28.1773 44.8262C28.4162 44.4101 28.7612 44.0648 29.1772 43.8256C30.1574 43.3367 31.3103 43.3367 32.2905 43.8256C32.7057 44.0638 33.0491 44.4095 33.2847 44.8262C33.5482 45.3055 33.6793 45.8463 33.6645 46.3931C33.6917 47.046 33.5044 47.6899 33.1312 48.2264C32.8202 48.6643 32.3756 48.9897 31.8641 49.1537C32.3643 49.7905 33.072 50.2317 33.864 50.4005C34.7502 50.6578 35.6679 50.7902 36.5906 50.7937C37.8123 50.8043 39.0088 50.4466 40.0241 49.767C41.0773 49.023 41.8627 47.9593 42.264 46.7338C42.7726 45.2752 43.0209 43.7385 42.9973 42.1939C43.0384 40.5836 42.7667 38.9807 42.1973 37.4738C41.7691 36.2686 40.9561 35.2378 39.884 34.5404C38.8874 33.9098 37.7306 33.5789 36.5513 33.5872C35.5236 33.6743 34.5328 34.0107 33.6645 34.5672L31.5239 35.6405V34.5672L41.1439 21.662H27.8106V35.0539C27.773 36.0203 28.0286 36.9755 28.544 37.7939C29.0511 38.5192 29.9008 38.9263 30.7839 38.8671C31.5861 38.8509 32.3619 38.5775 32.9971 38.0872C33.717 37.5595 34.3435 36.915 34.8505 36.1804C34.8961 36.0516 34.9803 35.94 35.0916 35.8606C35.1809 35.7834 35.2949 35.7408 35.413 35.7406C35.6446 35.7618 35.8638 35.855 36.0397 36.0071C36.2625 36.2561 36.3838 36.5797 36.3796 36.9138C36.3538 37.1383 36.3138 37.361 36.2596 37.5804C35.7859 38.7268 34.992 39.7125 33.9728 40.4195C33.0262 41.06 31.9081 41.3997 30.7652 41.3939C27.8784 41.3939 25.8785 40.825 24.7656 39.6872C23.61 38.4169 23.0141 36.735 23.1122 35.0204V21.662H16.3306V19.1738H23.1438V13.5004L21.5839 11.9395V10.6672H26.1104L27.8106 11.5474V19.1738L45.4237 19.1202L47.1772 20.8802L36.3772 31.7327C37.0296 31.4703 37.7168 31.3041 38.417 31.2393C39.803 31.3 41.1553 31.686 42.3644 32.3661C43.7646 33.0317 44.9447 34.0847 45.7646 35.4005C46.4993 36.5143 47.0194 37.7556 47.298 39.0605C47.5271 40.0898 47.6499 41.1398 47.6647 42.1942C47.6718 44.2064 47.2156 46.1932 46.3314 48.0006C45.4928 49.7509 44.0815 51.1623 42.3312 52.0008C40.5396 52.8837 38.5679 53.3399 36.5706 53.3338Z" fill="white"/>
</svg>

<svg width="64" height="64" fill="none" xmlns="http://www.w3.org/2000/svg"><rect width="64" height="64" rx="4" fill="#2C7DF7"/><path d="M36.57 53.334c-3.044 0-5.266-.734-6.666-2.2a6.792 6.792 0 01-2.093-4.74 3.145 3.145 0 01.366-1.568 2.712 2.712 0 011-1 3.488 3.488 0 013.114 0c.415.238.758.584.994 1 .263.48.394 1.02.38 1.567a2.992 2.992 0 01-.534 1.833 2.485 2.485 0 01-1.267.928 3.46 3.46 0 002 1.246c.886.258 1.804.39 2.727.394a6.078 6.078 0 003.433-1.027 6 6 0 002.24-3.033c.509-1.459.757-2.995.733-4.54.041-1.61-.23-3.213-.8-4.72a5.827 5.827 0 00-2.313-2.934 6.152 6.152 0 00-3.333-.953 6.342 6.342 0 00-2.887.98l-2.14 1.074v-1.074l9.62-12.905H27.81v13.392a4.792 4.792 0 00.733 2.74 2.527 2.527 0 002.24 1.073 3.746 3.746 0 002.213-.78 7.995 7.995 0 001.853-1.907.666.666 0 01.242-.32.493.493 0 01.321-.12c.232.022.45.115.627.267.223.25.344.573.34.907a5.305 5.305 0 01-.12.666 6.456 6.456 0 01-2.287 2.84c-.947.64-2.065.98-3.208.974-2.887 0-4.887-.569-6-1.707a6.392 6.392 0 01-1.653-4.667V21.662H16.33v-2.488h6.813V13.5l-1.56-1.56v-1.273h4.526l1.7.88v7.627l17.614-.054 1.753 1.76-10.8 10.853a7.26 7.26 0 012.04-.494 8.84 8.84 0 013.947 1.127 8.107 8.107 0 013.4 3.035 10.707 10.707 0 011.534 3.66c.23 1.029.352 2.079.367 3.133a13.108 13.108 0 01-1.334 5.807 8.515 8.515 0 01-4 4 12.943 12.943 0 01-5.76 1.333z" fill="#fff"/></svg>
